Newaita-dark/apps/22/com.github.plugarut.pwned-checker.svg

<svg height="22" viewBox="0 0 22 22" width="22" xmlns="http://www.w3.org/2000/svg" xmlns:xlink="http://www.w3.org/1999/xlink"><linearGradient id="a"><stop offset="0" stop-opacity=".313726"/><stop offset=".222222" stop-opacity=".27451"/><stop offset="1" stop-opacity="0"/></linearGradient><radialGradient id="b" cx="450.908936" cy="189.579361" gradientTransform="matrix(.00000012 -.0537161 -.0966889 -.00000007 33.565841 43.72179)" gradientUnits="userSpaceOnUse" r="21.166656" xlink:href="#a"/><radialGradient id="c" cx="450.908936" cy="189.579361" gradientTransform="matrix(-.00000012 .0537161 .0966889 .00000007 -11.735629 -5.175143)" gradientUnits="userSpaceOnUse" r="21.166656" xlink:href="#a"/><radialGradient id="d" cx="450.908936" cy="189.579361" gradientTransform="matrix(-.00000012 -.0537161 .0966889 -.00000007 -11.735629 43.72179)" gradientUnits="userSpaceOnUse" r="21.166656" xlink:href="#a"/><radialGradient id="e" cx="450.908936" cy="189.579361" gradientTransform="matrix(.00000012 .0537161 -.0966889 .00000007 33.56584 -5.175144)" gradientUnits="userSpaceOnUse" r="21.166656" xlink:href="#a"/><linearGradient id="f" gradientTransform="matrix(.183701 0 0 .0343397 -35.987872 11.437737)" gradientUnits="userSpaceOnUse" x1="255.322968" x2="255.323044" y1="228.178589" y2="254.666656"><stop offset="0" stop-opacity=".27451"/><stop offset="1" stop-opacity="0"/></linearGradient><linearGradient id="g" gradientUnits="userSpaceOnUse" x1="10.9151166" x2="10.9151166" y1="19.27333515" y2="10.17740467865"><stop offset="0" stop-color="#546e7a"/><stop offset="1" stop-color="#607d8b"/></linearGradient><linearGradient id="h" gradientUnits="userSpaceOnUse" x1="10.915104" x2="10.915104" y1="19.27332401286" y2="1.99107548985"><stop offset="0" stop-color="#bdbdbd"/><stop offset="1" stop-color="#eee"/></linearGradient><linearGradient id="i" gradientUnits="userSpaceOnUse" x1="10.9151166" x2="10.9151166" y1="19.27333515" y2="1.99106765838"><stop offset="0" stop-color="#9ccc65"/><stop offset="1" stop-color="#aed581"/></linearGradient><path d="m15.464844 19.273438h1.816406v-.910157h-1.816406zm0 0" fill="url(#b)"/><path d="m6.367188 19.273438h-1.820313v.910156h1.820313zm0 0" fill="url(#c)"/><path d="m6.367188 19.273438h-1.820313v-.910157h1.820313zm0 0" fill="url(#d)"/><path d="m15.464844 19.273438h1.816406v.910156h-1.816406zm0 0" fill="url(#e)"/><path d="m6.367188 19.273438h9.097656v.910156h-9.097656zm0 0" fill="url(#f)"/><path d="m5.457031 10.175781h10.914063c.503906 0 .910156.410157.910156.910157v7.277343c0 .503907-.40625.910157-.910156.910157h-10.914063c-.5 0-.910156-.40625-.910156-.910157v-7.277343c0-.5.410156-.910157.910156-.910157zm0 0" fill="url(#g)"/><path d="m10.914062 1.992188c-2.769531 0-5 2.230468-5 5v3.183593h1.363282v-3.183593c0-2.015626 1.621094-3.636719 3.636718-3.636719 2.015626 0 3.640626 1.621093 3.640626 3.636719v3.183593h1.363281v-3.183593c0-2.769532-2.230469-5-5.003907-5zm0 0" fill="url(#h)"/><path d="m10.914062 1.992188c-2.769531 0-5 2.230468-5 5v3.183593h1.363282v-3.183593c0-2.015626 1.621094-3.636719 3.636718-3.636719 2.015626 0 3.640626 1.621093 3.640626 3.636719v3.183593h1.363281v-3.183593c0-2.769532-2.230469-5-5.003907-5zm0 0" fill="#cfcfcf"/><path d="m10.914062 1.992188c-2.769531 0-5 2.230468-5 5v.230468c0-2.773437 2.230469-5.003906 5-5.003906 2.773438 0 5.003907 2.230469 5.003907 5.003906v-.230468c0-2.769532-2.230469-5-5.003907-5zm0 0" fill="#fff" fill-opacity=".784314"/><path d="m10.914062 3.128906c-2.015624 0-3.636718 1.621094-3.636718 3.636719v.226563c0-2.015626 1.621094-3.636719 3.636718-3.636719 2.015626 0 3.640626 1.621093 3.640626 3.636719v-.226563c0-2.015625-1.625-3.636719-3.640626-3.636719zm-5 6.820313v.226562h1.363282v-.226562zm8.640626 0v.226562h1.363281v-.226562zm0 0" fill-opacity=".235294"/><path d="m959.908384 175.215918c-243.584483 0-439.757599 196.173117-439.757599 439.757599v280.001909h119.902658v-280.001909c0-177.277282 142.577659-319.854941 319.854941-319.854941s320.198501 142.577659 320.198501 319.854941v280.001909h119.902658v-280.001909c0-243.584482-196.173116-439.757599-440.101159-439.757599zm0 0" fill="none" stroke="#212121" stroke-linecap="round" stroke-linejoin="round" stroke-width="11.338583" transform="scale(.0113699)"/><path d="m5.457031 19.273438c-.503906 0-.910156-.40625-.910156-.910157v-.453125c0 .503906.40625.910156.910156.910156h10.914063c.503906 0 .910156-.40625.910156-.910156v.453125c0 .503907-.40625.910157-.910156.910157zm0 0" fill-opacity=".235294"/><path d="m5.457031 10.175781c-.503906 0-.910156.40625-.910156.910157v.457031c0-.503907.40625-.910157.910156-.910157h10.914063c.503906 0 .910156.40625.910156.910157v-.457031c0-.503907-.40625-.910157-.910156-.910157zm0 0" fill="#fff" fill-opacity=".392157"/><path d="m5.457031 10.113281c-.539062 0-.972656.433594-.972656.972657v7.277343c0 .539063.433594.972657.972656.972657h10.914063c.539062 0 .976562-.433594.976562-.972657v-7.277343c0-.539063-.4375-.972657-.976562-.972657zm0 .128907h10.914063c.472656 0 .847656.375.847656.84375v7.277343c0 .46875-.375.84375-.847656.84375h-10.914063c-.46875 0-.84375-.375-.84375-.84375v-7.277343c0-.46875.375-.84375.84375-.84375zm0 0" fill="#212121"/><path d="m17.332031 6.988281c-.296875-.011719-.585937.121094-.765625.359375l-5.769531 7.417969-3.824219-3.441406c-.238281-.222657-.578125-.296875-.890625-.199219-.308593.101562-.542969.359375-.609375.679688-.066406.320312.042969.648437.289063.863281l4.546875 4.09375c.1875.167969.4375.25.6875.230469.25-.023438.480468-.148438.632812-.347657l6.367188-8.183593c.214844-.269532.257812-.628907.117187-.941407-.136719-.308593-.441406-.515625-.78125-.53125zm0 0" fill="url(#i)"/><path d="m17.332031 6.988281c-.296875-.011719-.585937.121094-.765625.359375l-5.769531 7.417969-3.824219-3.441406c-.289062-.265625-.714844-.316407-1.054687-.125-.34375.191406-.523438.578125-.449219.964843.0625-.324218.296875-.585937.609375-.6875.308594-.101562.652344-.027343.894531.191407l3.824219 3.445312 5.769531-7.417969c.179688-.238281.46875-.375.765625-.359374.417969.019531.765625.320312.847657.730468.046874-.257812-.015626-.523437-.179688-.730468-.160156-.207032-.40625-.335938-.667969-.347657zm0 0" fill="#fff" fill-opacity=".392157"/><path d="m16.632812 10.214844-5.003906 6.4375c-.152344.195312-.382812.320312-.632812.34375-.25.023437-.5-.058594-.6875-.226563l-4.546875-4.09375c-.113281-.101562-.199219-.222656-.25-.363281-.132813.351562-.03125.75.25 1l4.546875 4.089844c.1875.167968.4375.253906.6875.230468.25-.023437.480468-.148437.632812-.347656l5.351563-6.875c-.097657-.089844-.214844-.15625-.347657-.195312zm0 0" fill-opacity=".235294"/><path d="m403.325121-52.379166c-6.908431-.272701-13.635062 2.817913-17.816481 8.362838l-134.259906 172.619879-88.991502-80.083261c-5.544925-5.181324-13.45326-6.908432-20.725293-4.635921-7.181132 2.36341-12.635157 8.362837-14.180464 15.816671s.999904 15.089468 6.72663 20.088991l105.808078 95.26363c4.36322 3.908717 10.180846 5.817626 15.998472 5.363124 5.817626-.545402 11.180751-3.454216 14.725867-8.090136l148.167668-190.43636c4.999523-6.272128 5.999428-14.634966 2.727013-21.906999-3.181515-7.181132-10.271747-11.998854-18.180082-12.362456zm0 0" fill="none" stroke="#212121" stroke-linecap="round" stroke-linejoin="round" stroke-width="3" transform="matrix(.0429729 0 0 .0429729 0 9.239163)"/></svg>

<?xml version="1.0" encoding="UTF-8"?>
<svg xmlns="http://www.w3.org/2000/svg" xmlns:xlink="http://www.w3.org/1999/xlink" width="22px" height="22px" viewBox="0 0 22 22" version="1.1">
<defs>
<radialGradient id="radial0" gradientUnits="userSpaceOnUse" cx="450.908936" cy="189.579361" fx="450.908936" fy="189.579361" r="21.166656" gradientTransform="matrix(0.000000119742,-0.0537161,-0.0966889,-0.0000000698078,33.565841,43.72179)">
<stop offset="0" style="stop-color:rgb(0%,0%,0%);stop-opacity:0.313726;"/>
<stop offset="0.222222" style="stop-color:rgb(0%,0%,0%);stop-opacity:0.27451;"/>
<stop offset="1" style="stop-color:rgb(0%,0%,0%);stop-opacity:0;"/>
</radialGradient>
<radialGradient id="radial1" gradientUnits="userSpaceOnUse" cx="450.908936" cy="189.579361" fx="450.908936" fy="189.579361" r="21.166656" gradientTransform="matrix(-0.000000119742,0.0537161,0.0966889,0.0000000698078,-11.735629,-5.175143)">
<stop offset="0" style="stop-color:rgb(0%,0%,0%);stop-opacity:0.313726;"/>
<stop offset="0.222222" style="stop-color:rgb(0%,0%,0%);stop-opacity:0.27451;"/>
<stop offset="1" style="stop-color:rgb(0%,0%,0%);stop-opacity:0;"/>
</radialGradient>
<radialGradient id="radial2" gradientUnits="userSpaceOnUse" cx="450.908936" cy="189.579361" fx="450.908936" fy="189.579361" r="21.166656" gradientTransform="matrix(-0.000000119742,-0.0537161,0.0966889,-0.0000000698078,-11.735629,43.72179)">
<stop offset="0" style="stop-color:rgb(0%,0%,0%);stop-opacity:0.313726;"/>
<stop offset="0.222222" style="stop-color:rgb(0%,0%,0%);stop-opacity:0.27451;"/>
<stop offset="1" style="stop-color:rgb(0%,0%,0%);stop-opacity:0;"/>
</radialGradient>
<radialGradient id="radial3" gradientUnits="userSpaceOnUse" cx="450.908936" cy="189.579361" fx="450.908936" fy="189.579361" r="21.166656" gradientTransform="matrix(0.000000119742,0.0537161,-0.0966889,0.0000000698078,33.56584,-5.175144)">
<stop offset="0" style="stop-color:rgb(0%,0%,0%);stop-opacity:0.313726;"/>
<stop offset="0.222222" style="stop-color:rgb(0%,0%,0%);stop-opacity:0.27451;"/>
<stop offset="1" style="stop-color:rgb(0%,0%,0%);stop-opacity:0;"/>
</radialGradient>
<linearGradient id="linear0" gradientUnits="userSpaceOnUse" x1="255.322968" y1="228.178589" x2="255.323044" y2="254.666656" gradientTransform="matrix(0.183701,0,0,0.0343397,-35.987872,11.437737)">
<stop offset="0" style="stop-color:rgb(0%,0%,0%);stop-opacity:0.27451;"/>
<stop offset="1" style="stop-color:rgb(0%,0%,0%);stop-opacity:0;"/>
</linearGradient>
<linearGradient id="linear1" gradientUnits="userSpaceOnUse" x1="254" y1="233.5" x2="254" y2="21.833334" gradientTransform="matrix(0.0429729,0,0,0.0429729,0,9.239163)">
<stop offset="0" style="stop-color:rgb(32.941177%,43.137255%,47.843137%);stop-opacity:1;"/>
<stop offset="1" style="stop-color:rgb(37.64706%,49.019608%,54.509807%);stop-opacity:1;"/>
</linearGradient>
<linearGradient id="linear2" gradientUnits="userSpaceOnUse" x1="960" y1="1695.118164" x2="960" y2="175.118118" gradientTransform="matrix(0.0113699,0,0,0.0113699,0,0)">
<stop offset="0" style="stop-color:rgb(74.117649%,74.117649%,74.117649%);stop-opacity:1;"/>
<stop offset="1" style="stop-color:rgb(93.333334%,93.333334%,93.333334%);stop-opacity:1;"/>
</linearGradient>
<linearGradient id="linear3" gradientUnits="userSpaceOnUse" x1="254" y1="233.5" x2="254" y2="-168.666656" gradientTransform="matrix(0.0429729,0,0,0.0429729,0,9.239163)">
<stop offset="0" style="stop-color:rgb(61.176473%,80.000001%,39.607844%);stop-opacity:1;"/>
<stop offset="1" style="stop-color:rgb(68.235296%,83.529413%,50.588238%);stop-opacity:1;"/>
</linearGradient>
</defs>
<g id="surface1">
<path style=" stroke:none;fill-rule:nonzero;fill:url(#radial0);" d="M 15.464844 19.273438 L 17.28125 19.273438 L 17.28125 18.363281 L 15.464844 18.363281 Z M 15.464844 19.273438 "/>
<path style=" stroke:none;fill-rule:nonzero;fill:url(#radial1);" d="M 6.367188 19.273438 L 4.546875 19.273438 L 4.546875 20.183594 L 6.367188 20.183594 Z M 6.367188 19.273438 "/>
<path style=" stroke:none;fill-rule:nonzero;fill:url(#radial2);" d="M 6.367188 19.273438 L 4.546875 19.273438 L 4.546875 18.363281 L 6.367188 18.363281 Z M 6.367188 19.273438 "/>
<path style=" stroke:none;fill-rule:nonzero;fill:url(#radial3);" d="M 15.464844 19.273438 L 17.28125 19.273438 L 17.28125 20.183594 L 15.464844 20.183594 Z M 15.464844 19.273438 "/>
<path style=" stroke:none;fill-rule:nonzero;fill:url(#linear0);" d="M 6.367188 19.273438 L 15.464844 19.273438 L 15.464844 20.183594 L 6.367188 20.183594 Z M 6.367188 19.273438 "/>
<path style=" stroke:none;fill-rule:nonzero;fill:url(#linear1);" d="M 5.457031 10.175781 L 16.371094 10.175781 C 16.875 10.175781 17.28125 10.585938 17.28125 11.085938 L 17.28125 18.363281 C 17.28125 18.867188 16.875 19.273438 16.371094 19.273438 L 5.457031 19.273438 C 4.957031 19.273438 4.546875 18.867188 4.546875 18.363281 L 4.546875 11.085938 C 4.546875 10.585938 4.957031 10.175781 5.457031 10.175781 Z M 5.457031 10.175781 "/>
<path style=" stroke:none;fill-rule:nonzero;fill:url(#linear2);" d="M 10.914062 1.992188 C 8.144531 1.992188 5.914062 4.222656 5.914062 6.992188 L 5.914062 10.175781 L 7.277344 10.175781 L 7.277344 6.992188 C 7.277344 4.976562 8.898438 3.355469 10.914062 3.355469 C 12.929688 3.355469 14.554688 4.976562 14.554688 6.992188 L 14.554688 10.175781 L 15.917969 10.175781 L 15.917969 6.992188 C 15.917969 4.222656 13.6875 1.992188 10.914062 1.992188 Z M 10.914062 1.992188 "/>
<path style=" stroke:none;fill-rule:nonzero;fill:rgb(81.176472%,81.176472%,81.176472%);fill-opacity:1;" d="M 10.914062 1.992188 C 8.144531 1.992188 5.914062 4.222656 5.914062 6.992188 L 5.914062 10.175781 L 7.277344 10.175781 L 7.277344 6.992188 C 7.277344 4.976562 8.898438 3.355469 10.914062 3.355469 C 12.929688 3.355469 14.554688 4.976562 14.554688 6.992188 L 14.554688 10.175781 L 15.917969 10.175781 L 15.917969 6.992188 C 15.917969 4.222656 13.6875 1.992188 10.914062 1.992188 Z M 10.914062 1.992188 "/>
<path style=" stroke:none;fill-rule:nonzero;fill:rgb(100%,100%,100%);fill-opacity:0.784314;" d="M 10.914062 1.992188 C 8.144531 1.992188 5.914062 4.222656 5.914062 6.992188 L 5.914062 7.222656 C 5.914062 4.449219 8.144531 2.21875 10.914062 2.21875 C 13.6875 2.21875 15.917969 4.449219 15.917969 7.222656 L 15.917969 6.992188 C 15.917969 4.222656 13.6875 1.992188 10.914062 1.992188 Z M 10.914062 1.992188 "/>
<path style=" stroke:none;fill-rule:nonzero;fill:rgb(0%,0%,0%);fill-opacity:0.235294;" d="M 10.914062 3.128906 C 8.898438 3.128906 7.277344 4.75 7.277344 6.765625 L 7.277344 6.992188 C 7.277344 4.976562 8.898438 3.355469 10.914062 3.355469 C 12.929688 3.355469 14.554688 4.976562 14.554688 6.992188 L 14.554688 6.765625 C 14.554688 4.75 12.929688 3.128906 10.914062 3.128906 Z M 5.914062 9.949219 L 5.914062 10.175781 L 7.277344 10.175781 L 7.277344 9.949219 Z M 14.554688 9.949219 L 14.554688 10.175781 L 15.917969 10.175781 L 15.917969 9.949219 Z M 14.554688 9.949219 "/>
<path style="fill:none;stroke-width:11.338583;stroke-linecap:round;stroke-linejoin:round;stroke:rgb(12.941177%,12.941177%,12.941177%);stroke-opacity:1;stroke-miterlimit:4;" d="M 959.908384 175.215918 C 716.323901 175.215918 520.150785 371.389035 520.150785 614.973517 L 520.150785 894.975426 L 640.053443 894.975426 L 640.053443 614.973517 C 640.053443 437.696235 782.631102 295.118576 959.908384 295.118576 C 1137.185666 295.118576 1280.106885 437.696235 1280.106885 614.973517 L 1280.106885 894.975426 L 1400.009543 894.975426 L 1400.009543 614.973517 C 1400.009543 371.389035 1203.836427 175.215918 959.908384 175.215918 Z M 959.908384 175.215918 " transform="matrix(0.0113699,0,0,0.0113699,0,0)"/>
<path style=" stroke:none;fill-rule:nonzero;fill:rgb(0%,0%,0%);fill-opacity:0.235294;" d="M 5.457031 19.273438 C 4.953125 19.273438 4.546875 18.867188 4.546875 18.363281 L 4.546875 17.910156 C 4.546875 18.414062 4.953125 18.820312 5.457031 18.820312 L 16.371094 18.820312 C 16.875 18.820312 17.28125 18.414062 17.28125 17.910156 L 17.28125 18.363281 C 17.28125 18.867188 16.875 19.273438 16.371094 19.273438 Z M 5.457031 19.273438 "/>
<path style=" stroke:none;fill-rule:nonzero;fill:rgb(100%,100%,100%);fill-opacity:0.392157;" d="M 5.457031 10.175781 C 4.953125 10.175781 4.546875 10.582031 4.546875 11.085938 L 4.546875 11.542969 C 4.546875 11.039062 4.953125 10.632812 5.457031 10.632812 L 16.371094 10.632812 C 16.875 10.632812 17.28125 11.039062 17.28125 11.542969 L 17.28125 11.085938 C 17.28125 10.582031 16.875 10.175781 16.371094 10.175781 Z M 5.457031 10.175781 "/>
<path style=" stroke:none;fill-rule:nonzero;fill:rgb(12.941177%,12.941177%,12.941177%);fill-opacity:1;" d="M 5.457031 10.113281 C 4.917969 10.113281 4.484375 10.546875 4.484375 11.085938 L 4.484375 18.363281 C 4.484375 18.902344 4.917969 19.335938 5.457031 19.335938 L 16.371094 19.335938 C 16.910156 19.335938 17.347656 18.902344 17.347656 18.363281 L 17.347656 11.085938 C 17.347656 10.546875 16.910156 10.113281 16.371094 10.113281 Z M 5.457031 10.242188 L 16.371094 10.242188 C 16.84375 10.242188 17.21875 10.617188 17.21875 11.085938 L 17.21875 18.363281 C 17.21875 18.832031 16.84375 19.207031 16.371094 19.207031 L 5.457031 19.207031 C 4.988281 19.207031 4.613281 18.832031 4.613281 18.363281 L 4.613281 11.085938 C 4.613281 10.617188 4.988281 10.242188 5.457031 10.242188 Z M 5.457031 10.242188 "/>
<path style=" stroke:none;fill-rule:nonzero;fill:url(#linear3);" d="M 17.332031 6.988281 C 17.035156 6.976562 16.746094 7.109375 16.566406 7.347656 L 10.796875 14.765625 L 6.972656 11.324219 C 6.734375 11.101562 6.394531 11.027344 6.082031 11.125 C 5.773438 11.226562 5.539062 11.484375 5.472656 11.804688 C 5.40625 12.125 5.515625 12.453125 5.761719 12.667969 L 10.308594 16.761719 C 10.496094 16.929688 10.746094 17.011719 10.996094 16.992188 C 11.246094 16.96875 11.476562 16.84375 11.628906 16.644531 L 17.996094 8.460938 C 18.210938 8.191406 18.253906 7.832031 18.113281 7.519531 C 17.976562 7.210938 17.671875 7.003906 17.332031 6.988281 Z M 17.332031 6.988281 "/>
<path style=" stroke:none;fill-rule:nonzero;fill:rgb(100%,100%,100%);fill-opacity:0.392157;" d="M 17.332031 6.988281 C 17.035156 6.976562 16.746094 7.109375 16.566406 7.347656 L 10.796875 14.765625 L 6.972656 11.324219 C 6.683594 11.058594 6.257812 11.007812 5.917969 11.199219 C 5.574219 11.390625 5.394531 11.777344 5.46875 12.164062 C 5.53125 11.839844 5.765625 11.578125 6.078125 11.476562 C 6.386719 11.375 6.730469 11.449219 6.972656 11.667969 L 10.796875 15.113281 L 16.566406 7.695312 C 16.746094 7.457031 17.035156 7.320312 17.332031 7.335938 C 17.75 7.355469 18.097656 7.65625 18.179688 8.066406 C 18.226562 7.808594 18.164062 7.542969 18 7.335938 C 17.839844 7.128906 17.59375 7 17.332031 6.988281 Z M 17.332031 6.988281 "/>
<path style=" stroke:none;fill-rule:nonzero;fill:rgb(0%,0%,0%);fill-opacity:0.235294;" d="M 16.632812 10.214844 L 11.628906 16.652344 C 11.476562 16.847656 11.246094 16.972656 10.996094 16.996094 C 10.746094 17.019531 10.496094 16.9375 10.308594 16.769531 L 5.761719 12.675781 C 5.648438 12.574219 5.5625 12.453125 5.511719 12.3125 C 5.378906 12.664062 5.480469 13.0625 5.761719 13.3125 L 10.308594 17.402344 C 10.496094 17.570312 10.746094 17.65625 10.996094 17.632812 C 11.246094 17.609375 11.476562 17.484375 11.628906 17.285156 L 16.980469 10.410156 C 16.882812 10.320312 16.765625 10.253906 16.632812 10.214844 Z M 16.632812 10.214844 "/>
<path style="fill:none;stroke-width:3;stroke-linecap:round;stroke-linejoin:round;stroke:rgb(12.941177%,12.941177%,12.941177%);stroke-opacity:1;stroke-miterlimit:4;" d="M 403.325121 -52.379166 C 396.41669 -52.651867 389.690059 -49.561253 385.50864 -44.016328 L 251.248734 128.603551 L 162.257232 48.52029 C 156.712307 43.338966 148.803972 41.611858 141.531939 43.884369 C 134.350807 46.247779 128.896782 52.247206 127.351475 59.70104 C 125.806168 67.154874 128.351379 74.790508 134.078105 79.790031 L 239.886183 175.053661 C 244.249403 178.962378 250.067029 180.871287 255.884655 180.416785 C 261.702281 179.871383 267.065406 176.962569 270.610522 172.326649 L 418.77819 -18.109711 C 423.777713 -24.381839 424.777618 -32.744677 421.505203 -40.01671 C 418.323688 -47.197842 411.233456 -52.015564 403.325121 -52.379166 Z M 403.325121 -52.379166 " transform="matrix(0.0429729,0,0,0.0429729,0,9.239163)"/>
</g>
</svg>
